X:819
T:First Month of Spring, The
R:reel
D:Matt Molloy & Sean Keane: Contentment Is Wealth
Z:id:hn-reel-819
S:Henrik Norbeck <henrik.norbeck@MAILBOX.SWIPNET.SE> irtrad-l 2001-8-14
M:C|
L:1/8
K:D
dB~B2 A2FA|DAFA defe|dB~B2 A2FA|Beed egfe|
dB~B2 A2FA|DAFA defg|afge fdef|dBAB ~e3f||
af~f2 afbf|af~f2 efge|af~f2 ~a3f|egfe dBA2|
af~f2 afbf|af~f2 efge|fa~a2 fb~b2|bafe fgfe||
